bridge_ui/src/icons/Discord.svg

<svg width="26" height="19" viewBox="0 0 26 19" fill="none" xmlns="http://www.w3.org/2000/svg">
<path d="M22.3967 2.10679C20.1472 0.316323 16.588 0.0128823 16.4354 0.00226469C16.3194 -0.00717259 16.2034 0.0192786 16.1034 0.0779529C16.0033 0.136627 15.9242 0.224619 15.877 0.329735C15.8091 0.48074 15.7515 0.636067 15.7046 0.794675C17.1928 1.04335 19.0207 1.5435 20.6745 2.55832C20.7376 2.59703 20.7924 2.64765 20.8357 2.70728C20.879 2.76692 20.91 2.8344 20.9269 2.90588C20.9438 2.97736 20.9464 3.05144 20.9343 3.12388C20.9223 3.19633 20.896 3.26572 20.8568 3.3281C20.8177 3.39047 20.7665 3.44462 20.7061 3.48743C20.6458 3.53025 20.5776 3.5609 20.5053 3.57763C20.433 3.59437 20.358 3.59686 20.2848 3.58497C20.2115 3.57307 20.1413 3.54703 20.0782 3.50832C17.2352 1.76311 13.6845 1.6765 13 1.6765C12.3161 1.6765 8.76313 1.76367 5.92178 3.50776C5.85869 3.54647 5.78851 3.57252 5.71523 3.58441C5.64196 3.5963 5.56704 3.59381 5.49474 3.57707C5.34872 3.54328 5.22227 3.45352 5.1432 3.32754C5.06412 3.20156 5.0389 3.04969 5.07309 2.90532C5.10727 2.76096 5.19806 2.63594 5.32548 2.55776C6.9793 1.54573 8.80722 1.04335 10.2954 0.79691C10.2095 0.519734 10.1315 0.344823 10.1259 0.329735C10.0788 0.223877 9.99935 0.135308 9.89863 0.0765457C9.79792 0.0177834 9.68107 -0.00820096 9.56461 0.00226469C9.412 0.0134411 5.85283 0.316323 3.57217 2.13082C2.38239 3.21941 0 9.58495 0 15.0882C0 15.1866 0.0265652 15.2805 0.0751739 15.3654C1.7177 18.221 6.20213 18.967 7.22404 19H7.24157C7.33075 19.0002 7.41872 18.9796 7.49829 18.9398C7.57786 18.8999 7.64677 18.8421 7.69939 18.7709L8.73204 17.3649C5.94383 16.6535 4.51948 15.4442 4.43809 15.3721C4.32566 15.274 4.25726 15.1358 4.24793 14.9878C4.2386 14.8398 4.28911 14.6942 4.38835 14.5831C4.48758 14.4719 4.62742 14.4043 4.77709 14.3951C4.92676 14.3858 5.07401 14.4358 5.18643 14.5339C5.21922 14.5646 7.84239 16.7647 13 16.7647C18.1661 16.7647 20.7893 14.5557 20.8158 14.5339C20.9286 14.4365 21.0759 14.3873 21.2253 14.3971C21.3747 14.407 21.5141 14.4751 21.6128 14.5864C21.6616 14.6413 21.6991 14.7052 21.723 14.7744C21.7468 14.8436 21.7567 14.9167 21.752 14.9897C21.7473 15.0627 21.728 15.134 21.6954 15.1996C21.6628 15.2652 21.6174 15.3238 21.5619 15.3721C21.4805 15.4442 20.0562 16.6535 17.268 17.3649L18.3012 18.7709C18.3537 18.842 18.4226 18.8998 18.502 18.9396C18.5815 18.9795 18.6693 19.0001 18.7584 19H18.7754C19.7984 18.967 24.2823 18.2204 25.9254 15.3654C25.9734 15.2805 26 15.1866 26 15.0882C26 9.58495 23.6176 3.21997 22.3967 2.10679V2.10679ZM9.32609 12.8529C8.23296 12.8529 7.34783 11.8527 7.34783 10.6177C7.34783 9.38266 8.23296 8.38237 9.32609 8.38237C10.4192 8.38237 11.3043 9.38266 11.3043 10.6177C11.3043 11.8527 10.4192 12.8529 9.32609 12.8529ZM16.6739 12.8529C15.5808 12.8529 14.6957 11.8527 14.6957 10.6177C14.6957 9.38266 15.5808 8.38237 16.6739 8.38237C17.767 8.38237 18.6522 9.38266 18.6522 10.6177C18.6522 11.8527 17.767 12.8529 16.6739 12.8529Z" fill="#FFFFFF"/>
</svg>

<svg width="26" height="19" fill="none" xmlns="http://www.w3.org/2000/svg"><path d="M22.397 2.107C20.147.317 16.588.013 16.435.002a.566.566 0 0 0-.558.328 3.674 3.674 0 0 0-.172.465c1.488.248 3.316.749 4.97 1.763a.563.563 0 0 1 .26.566.554.554 0 0 1-.229.363.568.568 0 0 1-.628.021C17.235 1.763 13.685 1.677 13 1.677c-.684 0-4.237.087-7.078 1.83a.57.57 0 0 1-.779-.18.554.554 0 0 1 .182-.77c1.654-1.011 3.482-1.514 4.97-1.76-.085-.277-.163-.452-.17-.467a.554.554 0 0 0-.56-.328c-.153.011-3.712.314-5.993 2.129C2.382 3.219 0 9.585 0 15.088c0 .099.027.193.075.277C1.718 18.221 6.202 18.967 7.224 19h.018a.571.571 0 0 0 .457-.23l1.033-1.405c-2.788-.711-4.213-1.92-4.294-1.993a.557.557 0 0 1 .34-.977.57.57 0 0 1 .408.139c.033.03 2.656 2.23 7.814 2.23 5.166 0 7.79-2.208 7.816-2.23a.57.57 0 0 1 .907.24.553.553 0 0 1-.161.598c-.082.072-1.506 1.282-4.294 1.993l1.033 1.406a.563.563 0 0 0 .457.229h.017c1.023-.033 5.507-.78 7.15-3.635a.56.56 0 0 0 .075-.277c0-5.503-2.382-11.868-3.603-12.981ZM9.327 12.853c-1.094 0-1.98-1-1.98-2.235 0-1.235.886-2.236 1.98-2.236 1.092 0 1.977 1 1.977 2.236 0 1.235-.885 2.235-1.978 2.235Zm7.347 0c-1.093 0-1.978-1-1.978-2.235 0-1.235.885-2.236 1.978-2.236s1.978 1 1.978 2.236c0 1.235-.885 2.235-1.978 2.235Z" fill="#FFF"/></svg>
